X:1
T:Maiden's Prayer
M:4/4
L:1/8
K:A
B:The Fiddler's Fake Book, p. 182.
"A"A,4-A,CEA|[c8A8]|(3BcB Ac B2 AG|"D"EF3-F4|"E"{Bc}d4 {Bc}d3 e-|
d4 dcB2|ece2 (3fgf e2|"A"Bc2 dcBA2|A,4-A,CEA|B c2 dcBA2|
B3 c (3BcB A=G|"D"EF3-F2 (3agf |"A"ec e2 "D"fa-(3agf|
"A"ec e2 "D"a2-(3agf|"A"ec e2 "E"c'3e|"A"a8|]
